lib/functional/weather&nature/snowflake.svg

<svg xmlns="http://www.w3.org/2000/svg" fill="none" stroke="currentColor" aria-hidden="true" viewBox="0 0 32 32"><g id="Icon-Snowflake"><g clip-path="url(#clip0_13_356)"><g id="size=md (32px)"><g id="Snowflake"><path id="Vector" stroke-linecap="round" stroke-linejoin="round" stroke-width="2" d="M16 8V24"/><path id="Vector_2" stroke-linecap="round" stroke-linejoin="round" stroke-width="2" d="M13 5L16 8L19 5"/><path id="Vector_3" stroke-linecap="round" stroke-linejoin="round" stroke-width="2" d="M13 27L16 24L19 27"/><path id="Vector_4" stroke-linecap="round" stroke-linejoin="round" stroke-width="2" d="M9.07422 12L22.9242 20"/><path id="Vector_5" stroke-linecap="round" stroke-linejoin="round" stroke-width="2" d="M4.97461 13.1L9.07461 12L7.97461 7.90002"/><path id="Vector_6" stroke-linecap="round" stroke-linejoin="round" stroke-width="2" d="M24.0258 24.1L22.9258 20L27.0258 18.9"/><path id="Vector_7" stroke-linecap="round" stroke-linejoin="round" stroke-width="2" d="M9.07422 20L22.9242 12"/><path id="Vector_8" stroke-linecap="round" stroke-linejoin="round" stroke-width="2" d="M7.97461 24.1L9.07461 20L4.97461 18.9"/><path id="Vector_9" stroke-linecap="round" stroke-linejoin="round" stroke-width="2" d="M27.0258 13.1L22.9258 12L24.0258 7.90002"/></g></g></g></g><defs><clipPath id="clip0_13_356"><rect width="32" height="32" fill="white" rx="5"/></clipPath></defs></svg>

<svg xmlns="http://www.w3.org/2000/svg" fill="none" stroke="currentColor" aria-hidden="true" viewBox="0 0 32 32"><g stroke="#101828" stroke-linecap="round" stroke-linejoin="round" stroke-width="2" clip-path="url(#a)"><path d="M16 8v16M13 5l3 3 3-3m-6 22 3-3 3 3M9.074 12l13.85 8M4.975 13.1l4.1-1.1-1.1-4.1m16.051 16.2-1.1-4.1 4.1-1.1M9.074 20l13.85-8M7.975 24.1l1.1-4.1-4.1-1.1m22.051-5.8-4.1-1.1 1.1-4.1"/></g><defs><clipPath id="a"><rect width="32" height="32" fill="#fff" rx="5"/></clipPath></defs></svg>
